X:1
T:Title
L:1/8
Q:1/4=100
M:6/8
K:C
V:1 treble nm="Church Organ, Staff"
V:1
 ccB A G2 | ccB A G2 | FE>F GAB | c d2- d .d2 | Gcd c B2 | BAB A G2 | G^FA ccB | A G2- G .G2 | %8
w: By~F.~A.~Challinor * * * *||||||||
 G d2 d G2 | G c2 c B2 | Gc>B c d2 | A e2- e .e2 | eeA e d2 | ddG d c2 | BA>B A2 A- | %15
w: |||||||
 A/B/Ae- e2 d | z Gc- c/d/eA- | AcF- F/G/AG- | GFE- E/F/GA | Bcd- d2 d- | dGc- c2 c |] %21
w: ||||||

